<?xml version="1.0" encoding="UTF-8"?>
<map version="1.10" tiledversion="1.12.2" orientation="orthogonal" renderorder="right-down" width="30" height="20" tilewidth="16" tileheight="16" infinite="0" nextlayerid="5" nextobjectid="1">
 <tileset firstgid="1" name="cave" tilewidth="16" tileheight="16" tilecount="288" columns="16">
  <image source="MineSpriteSheet.png" width="256" height="288"/>
 </tileset>
 <layer id="1" name="Back" width="30" height="20">
  <data encoding="csv">
0,0,0,0,0,0,0,0,0,0,0,0,0,0,0,0,0,0,0,0,0,0,0,0,0,0,0,0,0,0,
0,0,0,0,0,0,0,0,0,0,0,0,0,0,0,0,0,0,0,0,0,0,0,0,0,0,0,0,0,0,
0,0,0,0,0,0,0,0,0,0,0,0,0,0,0,0,0,0,0,0,0,0,0,0,0,0,0,0,0,0,
0,0,0,0,0,0,0,0,0,0,0,0,0,0,0,0,0,0,0,0,0,0,0,0,0,0,0,0,0,0,
0,0,0,0,0,0,0,0,0,0,0,0,0,0,0,0,0,0,0,0,0,0,0,0,0,0,0,0,0,0,
0,0,0,0,0,139,219,219,219,219,219,219,219,219,219,219,219,219,219,219,219,0,0,0,0,0,0,0,0,0,
0,0,0,0,0,219,187,235,235,235,235,235,235,205,235,235,235,235,235,235,186,219,0,0,0,0,0,0,0,0,
0,0,0,0,0,139,236,141,139,139,139,138,139,139,139,140,139,139,170,139,218,219,0,0,0,0,0,0,0,0,
0,0,0,0,0,139,138,139,139,139,155,139,138,139,141,139,139,139,139,139,218,219,0,0,0,0,0,0,0,0,
0,0,0,0,0,139,139,171,172,139,139,139,139,139,139,169,139,139,139,139,218,219,0,0,0,0,0,0,0,0,
0,0,0,0,0,139,139,139,139,139,141,138,139,139,139,141,139,139,139,139,218,219,0,0,0,0,0,0,0,0,
0,0,0,0,0,139,139,139,139,139,156,138,139,154,138,139,139,139,155,139,218,219,0,0,0,0,0,0,0,0,
0,0,0,0,0,139,139,139,139,139,139,139,138,139,139,139,139,139,171,172,218,219,0,0,0,0,0,0,0,0,
0,0,0,0,0,139,154,138,139,139,139,139,139,139,139,139,139,139,139,139,218,219,0,0,0,0,0,0,0,0,
0,0,0,0,0,139,139,139,141,139,139,170,139,139,139,139,139,140,138,139,218,219,0,0,0,0,0,0,0,0,
0,0,0,0,0,139,139,156,139,139,139,139,139,139,139,139,156,139,139,139,218,139,0,0,0,0,0,0,0,0,
0,0,0,0,0,0,0,0,0,0,0,0,0,0,0,0,0,0,0,0,218,0,0,0,0,0,0,0,0,0,
0,0,0,0,0,0,0,0,0,0,0,0,0,0,0,0,0,0,0,0,0,0,0,0,0,0,0,0,0,0,
0,0,0,0,0,0,0,0,0,0,0,0,0,0,0,0,0,0,0,0,0,0,0,0,0,0,0,0,0,0,
0,0,0,0,0,0,0,0,0,0,0,0,0,0,0,0,0,0,0,0,0,0,0,0,0,0,0,0,0,0</data>
 </layer>
 <layer id="2" name="Buildings" width="30" height="20">
  <data encoding="csv">
0,0,0,0,0,0,0,0,0,0,62,0,42,43,0,0,30,0,64,0,0,0,0,0,0,0,0,0,0,0,
0,0,0,14,15,58,59,79,79,79,79,26,13,79,79,48,79,42,79,79,79,44,45,79,0,0,0,0,0,0,
0,0,0,48,31,43,71,74,5,6,7,74,75,68,77,74,5,6,7,74,94,60,79,30,0,0,0,0,0,0,
0,0,0,11,79,69,87,90,21,22,23,66,67,84,93,90,21,22,23,90,110,112,79,48,0,0,0,0,0,0,
0,0,0,79,79,85,103,106,37,38,39,82,83,100,109,106,37,51,39,106,126,128,10,79,0,0,0,0,0,0,
0,0,0,79,30,101,119,122,53,54,55,122,123,116,125,122,53,54,55,122,142,144,79,79,0,0,0,0,0,0,
0,0,0,79,79,117,135,0,0,0,0,0,0,0,0,0,0,0,0,0,158,160,79,79,0,0,0,0,0,0,
0,0,0,64,79,117,0,0,0,0,0,0,0,0,0,0,0,0,0,0,0,176,79,79,0,0,0,0,0,0,
0,0,0,79,79,133,0,0,0,0,0,0,0,0,0,0,0,0,0,0,0,192,79,79,0,0,0,0,0,0,
0,0,0,79,79,149,0,0,0,0,0,0,0,0,0,0,0,0,0,0,0,176,79,79,0,0,0,0,0,0,
0,0,0,79,79,165,0,0,0,0,0,0,0,0,0,0,0,0,0,0,0,144,79,79,0,0,0,0,0,0,
0,0,0,79,79,149,0,0,0,0,0,0,0,0,0,0,0,0,0,0,0,208,79,79,0,0,0,0,0,0,
0,0,0,80,80,165,0,0,0,0,0,0,0,0,0,0,0,0,0,0,0,160,80,80,0,0,0,0,0,0,
0,0,0,79,79,165,0,0,0,0,0,0,0,0,0,0,0,0,0,0,0,176,79,79,0,0,0,0,0,0,
0,0,0,79,79,181,0,0,0,0,0,0,0,0,0,0,0,0,0,0,0,192,79,30,0,0,0,0,0,0,
0,0,0,48,79,197,0,0,0,0,0,0,0,0,0,0,0,0,0,0,0,222,42,43,0,0,0,0,0,0,
0,0,14,15,79,79,282,283,284,284,283,284,283,284,284,283,284,284,283,284,285,79,79,79,0,0,0,0,0,0,
0,0,0,26,27,14,15,79,79,79,79,79,79,79,79,79,79,79,79,48,79,26,27,79,0,0,0,0,0,0,
0,0,0,0,0,0,0,0,0,0,0,0,0,0,0,0,0,0,0,0,0,0,0,0,0,0,0,0,0,0,
0,0,0,0,0,0,0,0,0,0,0,0,0,0,0,0,0,0,0,0,0,0,0,0,0,0,0,0,0,0</data>
 </layer>
 <layer id="3" name="Front" width="30" height="20">
  <data encoding="csv">
0,0,0,0,0,0,0,0,0,0,62,0,42,43,0,0,30,0,64,0,0,0,0,0,0,0,0,0,0,0,
0,0,0,14,15,58,59,0,0,0,0,26,13,0,0,48,0,42,0,0,0,44,45,79,0,0,0,0,0,0,
0,0,0,48,31,43,0,0,0,0,0,0,0,0,0,0,0,0,0,0,0,60,79,30,0,0,0,0,0,0,
0,0,0,11,79,69,0,0,0,0,0,0,0,0,0,0,0,0,0,0,0,112,79,48,0,0,0,0,0,0,
0,0,0,79,79,85,0,0,0,0,0,0,0,0,0,0,0,0,0,0,0,128,10,79,0,0,0,0,0,0,
0,0,0,79,30,101,0,0,0,0,0,0,0,0,0,0,0,0,0,0,0,144,79,79,0,0,0,0,0,0,
0,0,0,79,79,117,0,0,0,0,0,0,0,0,0,0,0,0,0,0,0,160,79,79,0,0,0,0,0,0,
0,0,0,64,79,117,0,0,0,0,0,0,0,0,0,0,0,0,0,0,0,176,79,79,0,0,0,0,0,0,
0,0,0,79,79,133,0,0,0,0,0,0,0,0,0,0,0,0,0,0,0,192,79,79,0,0,0,0,0,0,
0,0,0,79,79,149,0,0,0,0,0,0,0,0,0,0,0,0,0,0,0,176,79,79,0,0,0,0,0,0,
0,0,0,79,79,165,0,0,0,0,0,0,0,0,0,0,0,0,0,0,0,144,79,79,0,0,0,0,0,0,
0,0,0,79,79,149,0,0,0,0,0,0,0,0,0,0,0,0,0,0,0,208,79,79,0,0,0,0,0,0,
0,0,0,80,80,165,0,0,0,0,0,0,0,0,0,0,0,0,0,0,0,160,80,80,0,0,0,0,0,0,
0,0,0,79,79,165,0,0,0,0,0,0,0,0,0,0,0,0,0,0,0,176,79,79,0,0,0,0,0,0,
0,0,0,79,79,181,0,0,0,0,0,0,0,0,0,0,0,0,0,0,0,192,79,30,0,0,0,0,0,0,
0,0,0,48,79,197,266,267,268,268,267,268,267,268,268,267,268,268,267,268,269,222,42,43,0,0,0,0,0,0,
0,0,14,15,79,79,282,283,284,284,283,284,283,284,284,283,284,284,283,284,285,79,79,79,0,0,0,0,0,0,
0,0,0,26,27,14,15,79,79,79,79,79,79,79,79,79,79,79,79,48,79,26,27,79,0,0,0,0,0,0,
0,0,0,0,0,0,0,0,0,0,0,0,0,0,0,0,0,0,0,0,0,0,0,0,0,0,0,0,0,0,
0,0,0,0,0,0,0,0,0,0,0,0,0,0,0,0,0,0,0,0,0,0,0,0,0,0,0,0,0,0</data>
 </layer>
 <layer id="4" name="AlwaysFront" width="30" height="20">
  <data encoding="csv">
0,0,0,0,0,0,0,0,0,0,0,0,0,0,0,0,0,0,0,0,0,0,0,0,0,0,0,0,0,0,
0,0,0,0,0,0,0,0,0,0,0,0,0,0,0,0,0,0,0,0,0,0,0,0,0,0,0,0,0,0,
0,0,0,0,0,0,0,0,0,0,0,0,0,0,0,0,0,0,0,0,0,0,0,0,0,0,0,0,0,0,
0,0,0,0,0,0,0,0,0,0,0,0,0,0,0,0,0,0,0,0,0,0,0,0,0,0,0,0,0,0,
0,0,0,0,0,0,0,0,0,0,0,0,0,0,0,0,0,0,0,0,0,0,0,0,0,0,0,0,0,0,
0,0,0,0,0,0,0,0,0,0,0,0,0,0,0,0,0,0,0,0,0,0,0,0,0,0,0,0,0,0,
0,0,0,0,0,0,0,0,0,0,0,0,0,0,0,0,0,0,0,0,0,0,0,0,0,0,0,0,0,0,
0,0,0,0,0,0,0,0,0,0,0,0,0,0,0,0,0,0,0,0,0,0,0,0,0,0,0,0,0,0,
0,0,0,0,0,0,0,0,0,0,0,0,0,0,0,0,0,0,0,0,0,0,0,0,0,0,0,0,0,0,
0,0,0,0,0,0,0,0,0,0,0,0,0,0,0,0,0,0,0,0,0,0,0,0,0,0,0,0,0,0,
0,0,0,0,0,0,0,0,0,0,0,0,0,0,0,0,0,0,0,0,0,0,0,0,0,0,0,0,0,0,
0,0,0,0,0,0,0,0,0,0,0,0,0,0,0,0,0,0,0,0,0,0,0,0,0,0,0,0,0,0,
0,0,0,0,0,0,0,0,0,0,0,0,0,0,0,0,0,0,0,0,0,0,0,0,0,0,0,0,0,0,
0,0,0,0,0,0,0,0,0,0,0,0,0,0,0,0,0,0,0,0,0,0,0,0,0,0,0,0,0,0,
0,0,0,0,0,0,0,0,0,0,0,0,0,0,0,0,0,0,0,0,0,0,0,0,0,0,0,0,0,0,
0,0,0,0,0,0,0,0,0,0,0,0,0,0,0,0,0,0,0,0,0,0,0,0,0,0,0,0,0,0,
0,0,0,0,0,0,0,0,0,0,0,0,0,0,0,0,0,0,0,0,0,0,0,0,0,0,0,0,0,0,
0,0,0,0,0,0,0,0,0,0,0,0,0,0,0,0,0,0,0,0,0,0,0,0,0,0,0,0,0,0,
0,0,0,0,0,0,0,0,0,0,0,0,0,0,0,0,0,0,0,0,0,0,0,0,0,0,0,0,0,0,
0,0,0,0,0,0,0,0,0,0,0,0,0,0,0,0,0,0,0,0,0,0,0,0,0,0,0,0,0,0</data>
 </layer>
</map>