<?xml version="1.0" encoding="UTF-8"?>
<map version="1.10" tiledversion="1.12.2" orientation="orthogonal" renderorder="right-down" width="30" height="20" tilewidth="16" tileheight="16" infinite="0" nextlayerid="5" nextobjectid="1">
 <tileset firstgid="1" name="cave" tilewidth="16" tileheight="16" tilecount="288" columns="16">
  <image source="MineSpriteSheet.png" width="256" height="288"/>
 </tileset>
 <layer id="1" name="Back" width="30" height="20">
  <data encoding="csv">
0,0,0,0,0,0,0,0,0,0,0,0,0,0,0,0,0,0,0,0,0,0,0,0,0,0,0,0,0,0,
0,0,0,0,0,0,0,0,0,0,0,0,0,0,0,0,0,0,0,0,0,0,0,0,0,0,0,0,0,0,
0,0,0,0,0,0,0,0,0,0,0,0,0,0,0,0,0,0,0,0,0,0,0,0,0,0,0,0,0,0,
0,0,0,0,0,0,0,0,0,0,0,0,0,0,0,0,0,0,0,0,0,0,0,0,0,0,0,0,0,0,
0,0,0,0,0,0,0,0,0,0,0,0,0,0,0,0,0,0,0,0,0,0,0,0,0,0,0,0,0,0,
0,0,0,0,0,0,0,0,0,0,219,219,219,219,219,219,219,0,0,0,0,0,0,0,0,0,0,0,0,0,
0,0,0,0,0,0,0,0,0,219,187,235,235,205,235,235,186,219,0,0,0,0,0,0,0,0,0,0,0,0,
0,0,0,0,0,0,0,0,0,219,236,138,139,139,139,140,218,219,0,0,0,0,0,0,0,0,0,0,0,0,
0,0,0,0,0,0,0,0,0,139,155,139,138,139,141,139,218,219,0,0,0,0,0,0,0,0,0,0,0,0,
0,0,0,0,0,0,0,0,0,139,139,139,139,139,139,169,218,219,0,0,0,0,0,0,0,0,0,0,0,0,
0,0,0,0,0,0,0,0,0,139,141,138,139,139,139,141,218,219,0,0,0,0,0,0,0,0,0,0,0,0,
0,0,0,0,0,0,0,0,0,139,156,138,139,154,138,139,218,219,0,0,0,0,0,0,0,0,0,0,0,0,
0,0,0,0,0,0,0,0,0,139,139,139,141,139,139,139,218,139,0,0,0,0,0,0,0,0,0,0,0,0,
0,0,0,0,0,0,0,0,0,0,139,139,139,139,139,139,139,0,0,0,0,0,0,0,0,0,0,0,0,0,
0,0,0,0,0,0,0,0,0,0,0,0,0,0,0,0,0,0,0,0,0,0,0,0,0,0,0,0,0,0,
0,0,0,0,0,0,0,0,0,0,0,0,0,0,0,0,0,0,0,0,0,0,0,0,0,0,0,0,0,0,
0,0,0,0,0,0,0,0,0,0,0,0,0,0,0,0,0,0,0,0,0,0,0,0,0,0,0,0,0,0,
0,0,0,0,0,0,0,0,0,0,0,0,0,0,0,0,0,0,0,0,0,0,0,0,0,0,0,0,0,0,
0,0,0,0,0,0,0,0,0,0,0,0,0,0,0,0,0,0,0,0,0,0,0,0,0,0,0,0,0,0,
0,0,0,0,0,0,0,0,0,0,0,0,0,0,0,0,0,0,0,0,0,0,0,0,0,0,0,0,0,0</data>
 </layer>
 <layer id="2" name="Buildings" width="30" height="20">
  <data encoding="csv">
0,0,0,0,0,0,0,0,0,0,0,0,0,0,0,0,0,0,0,0,0,0,0,0,0,0,0,0,0,0,
0,0,0,0,0,0,0,79,79,79,79,79,79,79,79,79,79,79,79,79,0,0,0,0,0,0,0,0,0,0,
0,0,0,0,0,0,0,79,79,80,71,74,75,68,77,74,94,79,79,79,0,0,0,0,0,0,0,0,0,0,
0,0,0,0,0,0,0,79,79,69,87,66,67,84,93,90,110,112,79,79,0,0,0,0,0,0,0,0,0,0,
0,0,0,0,0,0,0,79,79,85,103,82,83,100,109,106,126,128,79,79,0,0,0,0,0,0,0,0,0,0,
0,0,0,0,0,0,0,79,79,101,119,122,123,116,125,122,142,144,79,79,0,0,0,0,0,0,0,0,0,0,
0,0,0,0,0,0,0,79,79,117,135,0,0,0,0,0,158,160,79,79,0,0,0,0,0,0,0,0,0,0,
0,0,0,0,0,0,0,79,79,133,0,0,0,0,0,0,0,144,79,79,0,0,0,0,0,0,0,0,0,0,
0,0,0,0,0,0,0,79,79,149,0,0,0,0,0,0,0,208,79,79,0,0,0,0,0,0,0,0,0,0,
0,0,0,0,0,0,0,80,80,149,0,0,0,0,0,0,0,160,80,80,0,0,0,0,0,0,0,0,0,0,
0,0,0,0,0,0,0,79,79,165,0,0,0,0,0,0,0,176,79,79,0,0,0,0,0,0,0,0,0,0,
0,0,0,0,0,0,0,79,79,181,0,0,0,0,0,0,0,192,79,79,0,0,0,0,0,0,0,0,0,0,
0,0,0,0,0,0,0,79,79,197,0,0,0,0,0,0,0,222,79,79,0,0,0,0,0,0,0,0,0,0,
0,0,0,0,0,0,0,79,79,79,282,283,284,284,283,284,285,79,79,79,0,0,0,0,0,0,0,0,0,0,
0,0,0,0,0,0,0,79,79,79,79,79,79,79,79,79,79,79,79,79,0,0,0,0,0,0,0,0,0,0,
0,0,0,0,0,0,0,0,0,0,0,0,0,0,0,0,0,0,0,0,0,0,0,0,0,0,0,0,0,0,
0,0,0,0,0,0,0,0,0,0,0,0,0,0,0,0,0,0,0,0,0,0,0,0,0,0,0,0,0,0,
0,0,0,0,0,0,0,0,0,0,0,0,0,0,0,0,0,0,0,0,0,0,0,0,0,0,0,0,0,0,
0,0,0,0,0,0,0,0,0,0,0,0,0,0,0,0,0,0,0,0,0,0,0,0,0,0,0,0,0,0,
0,0,0,0,0,0,0,0,0,0,0,0,0,0,0,0,0,0,0,0,0,0,0,0,0,0,0,0,0,0</data>
 </layer>
 <layer id="3" name="Front" width="30" height="20">
  <data encoding="csv">
0,0,0,0,0,0,0,0,0,0,0,0,0,0,0,0,0,0,0,0,0,0,0,0,0,0,0,0,0,0,
0,0,0,0,0,0,0,79,79,79,0,0,0,0,0,0,0,79,79,79,0,0,0,0,0,0,0,0,0,0,
0,0,0,0,0,0,0,79,79,80,0,0,0,0,0,0,0,79,79,79,0,0,0,0,0,0,0,0,0,0,
0,0,0,0,0,0,0,79,79,69,0,0,0,0,0,0,0,112,79,79,0,0,0,0,0,0,0,0,0,0,
0,0,0,0,0,0,0,79,79,85,0,0,0,0,0,0,0,128,79,79,0,0,0,0,0,0,0,0,0,0,
0,0,0,0,0,0,0,79,79,101,0,0,0,0,0,0,0,144,79,79,0,0,0,0,0,0,0,0,0,0,
0,0,0,0,0,0,0,79,79,117,0,0,0,0,0,0,0,160,79,79,0,0,0,0,0,0,0,0,0,0,
0,0,0,0,0,0,0,79,79,133,0,0,0,0,0,0,0,144,79,79,0,0,0,0,0,0,0,0,0,0,
0,0,0,0,0,0,0,79,79,149,0,0,0,0,0,0,0,208,79,79,0,0,0,0,0,0,0,0,0,0,
0,0,0,0,0,0,0,80,80,149,0,0,0,0,0,0,0,160,80,80,0,0,0,0,0,0,0,0,0,0,
0,0,0,0,0,0,0,79,79,165,0,0,0,0,0,0,0,176,79,79,0,0,0,0,0,0,0,0,0,0,
0,0,0,0,0,0,0,79,79,181,0,0,0,0,0,0,0,192,79,79,0,0,0,0,0,0,0,0,0,0,
0,0,0,0,0,0,0,79,79,197,266,267,268,268,267,268,269,222,79,79,0,0,0,0,0,0,0,0,0,0,
0,0,0,0,0,0,0,79,79,79,282,283,284,284,283,284,285,79,79,79,0,0,0,0,0,0,0,0,0,0,
0,0,0,0,0,0,0,79,79,79,79,79,79,79,79,79,79,79,79,79,0,0,0,0,0,0,0,0,0,0,
0,0,0,0,0,0,0,0,0,0,0,0,0,0,0,0,0,0,0,0,0,0,0,0,0,0,0,0,0,0,
0,0,0,0,0,0,0,0,0,0,0,0,0,0,0,0,0,0,0,0,0,0,0,0,0,0,0,0,0,0,
0,0,0,0,0,0,0,0,0,0,0,0,0,0,0,0,0,0,0,0,0,0,0,0,0,0,0,0,0,0,
0,0,0,0,0,0,0,0,0,0,0,0,0,0,0,0,0,0,0,0,0,0,0,0,0,0,0,0,0,0,
0,0,0,0,0,0,0,0,0,0,0,0,0,0,0,0,0,0,0,0,0,0,0,0,0,0,0,0,0,0</data>
 </layer>
 <layer id="4" name="AlwaysFront" width="30" height="20">
  <data encoding="csv">
0,0,0,0,0,0,0,0,0,0,0,0,0,0,0,0,0,0,0,0,0,0,0,0,0,0,0,0,0,0,
0,0,0,0,0,0,0,0,0,0,0,0,0,0,0,0,0,0,0,0,0,0,0,0,0,0,0,0,0,0,
0,0,0,0,0,0,0,0,0,0,0,0,0,0,0,0,0,0,0,0,0,0,0,0,0,0,0,0,0,0,
0,0,0,0,0,0,0,0,0,0,0,0,0,0,0,0,0,0,0,0,0,0,0,0,0,0,0,0,0,0,
0,0,0,0,0,0,0,0,0,0,0,0,0,0,0,0,0,0,0,0,0,0,0,0,0,0,0,0,0,0,
0,0,0,0,0,0,0,0,0,0,0,0,0,0,0,0,0,0,0,0,0,0,0,0,0,0,0,0,0,0,
0,0,0,0,0,0,0,0,0,0,0,0,0,0,0,0,0,0,0,0,0,0,0,0,0,0,0,0,0,0,
0,0,0,0,0,0,0,0,0,0,0,0,0,0,0,0,0,0,0,0,0,0,0,0,0,0,0,0,0,0,
0,0,0,0,0,0,0,0,0,0,0,0,0,0,0,0,0,0,0,0,0,0,0,0,0,0,0,0,0,0,
0,0,0,0,0,0,0,0,0,0,0,0,0,0,0,0,0,0,0,0,0,0,0,0,0,0,0,0,0,0,
0,0,0,0,0,0,0,0,0,0,0,0,0,0,0,0,0,0,0,0,0,0,0,0,0,0,0,0,0,0,
0,0,0,0,0,0,0,0,0,0,0,0,0,0,0,0,0,0,0,0,0,0,0,0,0,0,0,0,0,0,
0,0,0,0,0,0,0,0,0,0,0,0,0,0,0,0,0,0,0,0,0,0,0,0,0,0,0,0,0,0,
0,0,0,0,0,0,0,0,0,0,0,0,0,0,0,0,0,0,0,0,0,0,0,0,0,0,0,0,0,0,
0,0,0,0,0,0,0,0,0,0,0,0,0,0,0,0,0,0,0,0,0,0,0,0,0,0,0,0,0,0,
0,0,0,0,0,0,0,0,0,0,0,0,0,0,0,0,0,0,0,0,0,0,0,0,0,0,0,0,0,0,
0,0,0,0,0,0,0,0,0,0,0,0,0,0,0,0,0,0,0,0,0,0,0,0,0,0,0,0,0,0,
0,0,0,0,0,0,0,0,0,0,0,0,0,0,0,0,0,0,0,0,0,0,0,0,0,0,0,0,0,0,
0,0,0,0,0,0,0,0,0,0,0,0,0,0,0,0,0,0,0,0,0,0,0,0,0,0,0,0,0,0,
0,0,0,0,0,0,0,0,0,0,0,0,0,0,0,0,0,0,0,0,0,0,0,0,0,0,0,0,0,0</data>
 </layer>
</map>